images/robots-white.svg

<svg fill="none" height="203" viewBox="0 0 203 203" width="203" xmlns="http://www.w3.org/2000/svg" xmlns:xlink="http://www.w3.org/1999/xlink"><clipPath id="a"><path d="m0 0h203v203h-203z"/></clipPath><g clip-path="url(#a)"><path d="m49.0582 155.759c-6.5403 0-11.8416 5.301-11.8416 11.842 0 6.54 5.3013 11.841 11.8416 11.841 6.5404 0 11.8417-5.301 11.8417-11.841 0-6.541-5.3013-11.842-11.8417-11.842zm0 16.917c-2.8035 0-5.075-2.272-5.075-5.075 0-2.804 2.2715-5.075 5.075-5.075s5.075 2.271 5.075 5.075c0 2.803-2.2715 5.075-5.075 5.075z" fill="#fece03"/><path d="m140.408 179.442c6.541 0 11.842-5.301 11.842-11.841 0-6.541-5.301-11.842-11.842-11.842-6.54 0-11.841 5.301-11.841 11.842 0 6.54 5.301 11.841 11.841 11.841zm0-16.916c2.804 0 5.075 2.271 5.075 5.075 0 2.803-2.271 5.075-5.075 5.075-2.803 0-5.075-2.272-5.075-5.075 0-2.804 2.272-5.075 5.075-5.075z" fill="#fece03"/><path d="m165.783 167.601c0-7.182-3.043-14.028-8.374-18.838-5.331-4.813-12.451-7.14-19.596-6.405l-2.584-7.781-1.449-7.238 4.737-30.7885 22.046-20.4189c.249-.0529.504-.0876.758-.1586l2.909-.8326 1.861 4.1895c.545 1.2109 1.747 1.9923 3.076 1.9956h30.45c1.368 0 2.602-.8243 3.125-2.0881.524-1.2638.233-2.7192-.733-3.6873l-12.813-12.8164-10.286-50.299c-.241-1.1812-1.09-2.1443-2.232-2.52922-1.141-.38657-2.402-.13546-3.309.65752l-16.626 14.5493c-.588.5138-.981 1.2142-1.11 1.9857l-3.332 19.8325c-.11.6559-.026 1.3282.243 1.9362l2.03 4.6042-3.538 2.8959c-1.129.9367-2.062 2.0866-2.748 3.3834l-38.33 27.8613c-.925.6723-1.448 1.7676-1.391 2.9108l1.902 37.3887-1.803 14.315h-10.5493c-1.8685 0-3.3834 1.514-3.3834 3.383h-6.7666v-10.15h13.5333c1.868 0 3.383-1.515 3.383-3.383v-6.767c0-.344-.053-.687-.155-1.014l-16.9166-54.1338c-.4444-1.4108-1.7512-2.369-3.2281-2.369v-6.7667h-6.7666v6.7667h-20.3v-6.7667h-6.7667v6.7667c-1.8684 0-3.3833 1.5149-3.3833 3.3833v40.6005h-13.5334v-20.3005c0-7.4737-6.0596-13.5333-13.5333-13.5333h-3.3833v6.7667h3.3833c3.7369 0 6.7667 3.0298 6.7667 6.7666v20.3005h-13.5334v-3.384h3.3834c1.8684 0 3.3833-1.515 3.3833-3.383v-10.1501c0-1.8685-1.5149-3.3834-3.3833-3.3834h-13.53337c-1.86843 0-3.38333 1.5149-3.38333 3.3834v10.1501c0 1.868 1.5149 3.383 3.38333 3.383h3.38334v3.384h-3.38334c-1.86843 0-3.38333 1.514-3.38333 3.383v57.517c0 1.868 1.5149 3.383 3.38333 3.383h21.78187c1.3811 3.876 3.6807 7.358 6.7022 10.15h-31.8674v6.767h203v-6.767h-45.394c5.209-4.786 8.176-11.535 8.177-18.608zm-159.01633-69.3588h6.76663v3.3838h-6.76663zm152.25033 69.3588c0 10.277-8.331 18.608-18.609 18.608-10.277 0-18.608-8.331-18.608-18.608 0-10.278 8.331-18.609 18.608-18.609 10.273.013 18.595 8.336 18.609 18.609zm3.086-138.1934 11.341-9.9188 9.327 45.5974c.131.6492.451 1.2473.92 1.7148l7.758 7.7579h-20.083l-2.158-4.8586-7.218-16.2394-2.848-6.4081zm-6.767 32.1928 2.101-1.7181 3.998 9.0002-1.989.5683c-2.138.6294-4.414-.4064-5.342-2.4334-.874-1.875-.366-4.1053 1.235-5.417zm-7.809 7.0641c.125.4113.272.8144.443 1.2092.91 1.9643 2.367 3.6246 4.196 4.7826l-19.134 17.7229c-.56.5187-.928 1.2126-1.041 1.9692l-3.505 22.8736c-3.486-2.498-8.103-2.752-11.842-.652l-1.249-24.5625zm-35.877 80.3275c1.707 0 3.145-1.27 3.357-2.964l2.225-17.823v-.058l.278-2.219c.272-2.225 2.119-3.923 4.359-4.007 2.241-.085 4.21 1.47 4.648 3.669l2.111 10.525c.023.139.059.274.107.406l2.482 7.444c-9.747 3.795-16.17 13.177-16.184 23.636 0 .571.048 1.13.085 1.691h-13.618v-20.3zm-16.9167 3.384v10.15h-6.7666v-10.15zm.0512-37.217h-27.1178v-27.0668h18.6595zm-44.0345 3.383c1.8684 0 3.3833-1.515 3.3833-3.383v-40.6001h27.9637l2.1146 6.7666h-19.9283c-1.8684 0-3.3833 1.5149-3.3833 3.3834v33.8331c0 1.869 1.5149 3.384 3.3833 3.384h32.6158l1.2176 3.897v2.869h-60.9c-.8244 0-1.619.301-2.2369.846l-22.7218 20.019h-5.49133v-31.015zm-43.98333 50.75v-12.968h6.76663c.8244 0 1.619-.301 2.2369-.846l22.7284-20.019h42.7014v33.833h-6.8476c.0363-.561.0842-1.12.0842-1.691 0-14.015-11.3609-25.375-25.375-25.375-14.014 0-25.375 11.36-25.375 25.375 0 .571.0479 1.13.0843 1.691zm23.68333-1.691c0-10.278 8.3311-18.609 18.6083-18.609s18.6084 8.331 18.6084 18.609c0 10.277-8.3312 18.608-18.6084 18.608-10.2722-.013-18.5951-8.336-18.6083-18.608zm35.8058 18.608c3.0232-2.79 5.3212-6.274 6.699-10.15h11.6285c1.8685 0 3.3834-1.515 3.3834-3.383v-3.384h6.7666v3.384c0 1.868 1.5149 3.383 3.3834 3.383h18.3953c1.379 3.876 3.681 7.358 6.702 10.15z" fill="#fff"/><path d="m13.5334 125.309h6.7667v6.767h-6.7667z" fill="#fece03"/></g></svg>

<svg width="203" height="203" viewBox="0 0 203 203" fill="none" xmlns="http://www.w3.org/2000/svg">
<g clip-path="url(#clip0)">
<path d="M49.0582 155.759C42.5179 155.759 37.2166 161.06 37.2166 167.601C37.2166 174.141 42.5179 179.442 49.0582 179.442C55.5986 179.442 60.8999 174.141 60.8999 167.601C60.8999 161.06 55.5986 155.759 49.0582 155.759ZM49.0582 172.676C46.2547 172.676 43.9832 170.404 43.9832 167.601C43.9832 164.797 46.2547 162.526 49.0582 162.526C51.8617 162.526 54.1332 164.797 54.1332 167.601C54.1332 170.404 51.8617 172.676 49.0582 172.676Z" fill="#FECE03"/>
<path d="M140.408 179.442C146.949 179.442 152.25 174.141 152.25 167.601C152.25 161.06 146.949 155.759 140.408 155.759C133.868 155.759 128.567 161.06 128.567 167.601C128.567 174.141 133.868 179.442 140.408 179.442ZM140.408 162.526C143.212 162.526 145.483 164.797 145.483 167.601C145.483 170.404 143.212 172.676 140.408 172.676C137.605 172.676 135.333 170.404 135.333 167.601C135.333 164.797 137.605 162.526 140.408 162.526Z" fill="#FECE03"/>
<path d="M165.783 167.601C165.783 160.419 162.74 153.573 157.409 148.763C152.078 143.95 144.958 141.623 137.813 142.358L135.229 134.577L133.78 127.339L138.517 96.5505L160.563 76.1316C160.812 76.0787 161.067 76.044 161.321 75.973L164.23 75.1404L166.091 79.3299C166.636 80.5408 167.838 81.3222 169.167 81.3255H199.617C200.985 81.3255 202.219 80.5012 202.742 79.2374C203.266 77.9736 202.975 76.5182 202.009 75.5501L189.196 62.7337L178.91 12.4347C178.669 11.2535 177.82 10.2904 176.678 9.90548C175.537 9.51891 174.276 9.77002 173.369 10.563L156.743 25.1123C156.155 25.6261 155.762 26.3265 155.633 27.098L152.301 46.9305C152.191 47.5864 152.275 48.2587 152.544 48.8667L154.574 53.4709L151.036 56.3668C149.907 57.3035 148.974 58.4534 148.288 59.7502L109.958 87.6115C109.033 88.2838 108.51 89.3791 108.567 90.5223L110.469 127.911L108.666 142.226H98.1167C96.2482 142.226 94.7333 143.74 94.7333 145.609H87.9667V135.459H101.5C103.368 135.459 104.883 133.944 104.883 132.076V125.309C104.883 124.965 104.83 124.622 104.728 124.295L87.8114 70.1612C87.367 68.7504 86.0602 67.7922 84.5833 67.7922V61.0255H77.8167V67.7922H57.5167V61.0255H50.75V67.7922C48.8816 67.7922 47.3667 69.3071 47.3667 71.1755V111.776H33.8333V91.4755C33.8333 84.0018 27.7737 77.9422 20.3 77.9422H16.9167V84.7089H20.3C24.0369 84.7089 27.0667 87.7387 27.0667 91.4755V111.776H13.5333V108.392H16.9167C18.7851 108.392 20.3 106.877 20.3 105.009V94.8589C20.3 92.9904 18.7851 91.4755 16.9167 91.4755H3.38333C1.5149 91.4755 0 92.9904 0 94.8589V105.009C0 106.877 1.5149 108.392 3.38333 108.392H6.76667V111.776H3.38333C1.5149 111.776 0 113.29 0 115.159V172.676C0 174.544 1.5149 176.059 3.38333 176.059H25.1652C26.5463 179.935 28.8459 183.417 31.8674 186.209H0V192.976H203V186.209H157.606C162.815 181.423 165.782 174.674 165.783 167.601ZM6.76667 98.2422H13.5333V101.626H6.76667V98.2422ZM159.017 167.601C159.017 177.878 150.686 186.209 140.408 186.209C130.131 186.209 121.8 177.878 121.8 167.601C121.8 157.323 130.131 148.992 140.408 148.992C150.681 149.005 159.003 157.328 159.017 167.601ZM162.103 29.4076L173.444 19.4888L182.771 65.0862C182.902 65.7354 183.222 66.3335 183.691 66.801L191.449 74.5589H171.366L169.208 69.7003L161.99 53.4609L159.142 47.0528L162.103 29.4076ZM155.336 61.6004L157.437 59.8823L161.435 68.8825L159.446 69.4508C157.308 70.0802 155.032 69.0444 154.104 67.0174C153.23 65.1424 153.738 62.9121 155.339 61.6004H155.336ZM147.527 68.6645C147.652 69.0758 147.799 69.4789 147.97 69.8737C148.88 71.838 150.337 73.4983 152.166 74.6563L133.032 92.3792C132.472 92.8979 132.104 93.5918 131.991 94.3484L128.486 117.222C125 114.724 120.383 114.47 116.644 116.57L115.395 92.0075L147.527 68.6645ZM111.65 148.992C113.357 148.992 114.795 147.722 115.007 146.028L117.232 128.205V128.147L117.51 125.928C117.782 123.703 119.629 122.005 121.869 121.921C124.11 121.836 126.079 123.391 126.517 125.59L128.628 136.115C128.651 136.254 128.687 136.389 128.735 136.521L131.217 143.965C121.47 147.76 115.047 157.142 115.033 167.601C115.033 168.172 115.081 168.731 115.118 169.292H101.5V148.992H111.65ZM94.7333 152.376V162.526H87.9667V152.376H94.7333ZM94.7845 115.159H67.6667V88.0922H86.3262L94.7845 115.159ZM50.75 118.542C52.6184 118.542 54.1333 117.027 54.1333 115.159V74.5589H82.097L84.2116 81.3255H64.2833C62.4149 81.3255 60.9 82.8404 60.9 84.7089V118.542C60.9 120.411 62.4149 121.926 64.2833 121.926H96.8991L98.1167 125.823V128.692H37.2167C36.3923 128.692 35.5977 128.993 34.9798 129.538L12.258 149.557H6.76667V118.542H50.75ZM6.76667 169.292V156.324H13.5333C14.3577 156.324 15.1523 156.023 15.7702 155.478L38.4986 135.459H81.2V169.292H74.3524C74.3887 168.731 74.4366 168.172 74.4366 167.601C74.4366 153.586 63.0757 142.226 49.0616 142.226C35.0476 142.226 23.6866 153.586 23.6866 167.601C23.6866 168.172 23.7345 168.731 23.7709 169.292H6.76667ZM30.45 167.601C30.45 157.323 38.7811 148.992 49.0583 148.992C59.3355 148.992 67.6667 157.323 67.6667 167.601C67.6667 177.878 59.3355 186.209 49.0583 186.209C38.7861 186.196 30.4632 177.873 30.45 167.601ZM66.2558 186.209C69.279 183.419 71.577 179.935 72.9548 176.059H84.5833C86.4518 176.059 87.9667 174.544 87.9667 172.676V169.292H94.7333V172.676C94.7333 174.544 96.2482 176.059 98.1167 176.059H116.512C117.891 179.935 120.193 183.417 123.214 186.209H66.2558Z" fill="white"/>
<path d="M13.5334 125.309H20.3001V132.076H13.5334V125.309Z" fill="#FECE03"/>
</g>
<defs>
<clipPath id="clip0">
<rect width="203" height="203" fill="white"/>
</clipPath>
</defs>
</svg>
